usr/share/colord/illuminant/CIE-D65.sp
SPECT  
DISPLAY	"CIE-D65"
ORIGINATOR	"cd-it8"
CREATED	"Thu Jun 05 06:00:37 2014"
DESCRIPTOR	"Spectral Power"
SPECTRAL_START_NM	300
SPECTRAL_END_NM	830
SPECTRAL_BANDS	107
SPECTRAL_NORM	1.0
NUMBER_OF_FIELDS	107
NUMBER_OF_SETS	1
BEGIN_DATA_FORMAT
 SPEC_300	SPEC_305	SPEC_310	SPEC_315	SPEC_320	SPEC_325	SPEC_330	SPEC_335	SPEC_340	SPEC_345	SPEC_350	SPEC_355	SPEC_360	SPEC_365	SPEC_370	SPEC_375	SPEC_380	SPEC_385	SPEC_390	SPEC_395	SPEC_400	SPEC_405	SPEC_410	SPEC_415	SPEC_420	SPEC_425	SPEC_430	SPEC_435	SPEC_440	SPEC_445	SPEC_450	SPEC_455	SPEC_460	SPEC_465	SPEC_470	SPEC_475	SPEC_480	SPEC_485	SPEC_490	SPEC_495	SPEC_500	SPEC_505	SPEC_510	SPEC_515	SPEC_520	SPEC_525	SPEC_530	SPEC_535	SPEC_540	SPEC_545	SPEC_550	SPEC_555	SPEC_560	SPEC_565	SPEC_570	SPEC_575	SPEC_580	SPEC_585	SPEC_590	SPEC_595	SPEC_600	SPEC_605	SPEC_610	SPEC_615	SPEC_620	SPEC_625	SPEC_630	SPEC_635	SPEC_640	SPEC_645	SPEC_650	SPEC_655	SPEC_660	SPEC_665	SPEC_670	SPEC_675	SPEC_680	SPEC_685	SPEC_690	SPEC_695	SPEC_700	SPEC_705	SPEC_710	SPEC_715	SPEC_720	SPEC_725	SPEC_730	SPEC_735	SPEC_740	SPEC_745	SPEC_750	SPEC_755	SPEC_760	SPEC_765	SPEC_770	SPEC_775	SPEC_780	SPEC_785	SPEC_790	SPEC_795	SPEC_800	SPEC_805	SPEC_810	SPEC_815	SPEC_820	SPEC_825	SPEC_830
END_DATA_FORMAT
BEGIN_DATA
 0.000341	0.016643	0.032945	0.117652	0.20236	0.286447	0.370535	0.385011	0.399488	0.424302	0.449117	0.45775	0.466383	0.493637	0.520891	0.510323	0.499755	0.523118	0.546482	0.687015	0.827549	0.871204	0.91486	0.924589	0.934318	0.90057	0.866823	0.957736	1.04865	1.10936	1.17008	1.1741	1.17812	1.16336	1.14861	1.15392	1.15923	1.12367	1.08811	1.09082	1.09354	1.08578	1.07802	1.06296	1.0479	1.06239	1.07689	1.06047	1.04405	1.04225	1.04046	1.02023	1.0	0.981671	0.963342	0.960611	0.95788	0.922368	0.886856	0.893459	0.900062	0.898026	0.895991	0.886489	0.876987	0.854936	0.832886	0.834939	0.836992	0.81863	0.800268	0.801207	0.802146	0.812462	0.822778	0.80281	0.782842	0.740027	0.697213	0.706652	0.716091	0.72979	0.74349	0.679765	0.61604	0.657448	0.698856	0.724863	0.75087	0.693398	0.635927	0.550054	0.464182	0.566118	0.668054	0.650941	0.633828	0.638434	0.64304	0.618779	0.594519	0.557054	0.51959	0.546998	0.574406	0.588765	0.603125
END_DATA
