usr/share/colord/illuminant/CIE-A.sp
SPECT  
DISPLAY	"CIE-A"
ORIGINATOR	"cd-it8"
CREATED	"Thu Jun 05 06:00:37 2014"
DESCRIPTOR	"Spectral Power"
SPECTRAL_START_NM	300
SPECTRAL_END_NM	830
SPECTRAL_BANDS	531
SPECTRAL_NORM	1.0
NUMBER_OF_FIELDS	531
NUMBER_OF_SETS	1
BEGIN_DATA_FORMAT
 SPEC_300	SPEC_301	SPEC_302	SPEC_303	SPEC_304	SPEC_305	SPEC_306	SPEC_307	SPEC_308	SPEC_309	SPEC_310	SPEC_311	SPEC_312	SPEC_313	SPEC_314	SPEC_315	SPEC_316	SPEC_317	SPEC_318	SPEC_319	SPEC_320	SPEC_321	SPEC_322	SPEC_323	SPEC_324	SPEC_325	SPEC_326	SPEC_327	SPEC_328	SPEC_329	SPEC_330	SPEC_331	SPEC_332	SPEC_333	SPEC_334	SPEC_335	SPEC_336	SPEC_337	SPEC_338	SPEC_339	SPEC_340	SPEC_341	SPEC_342	SPEC_343	SPEC_344	SPEC_345	SPEC_346	SPEC_347	SPEC_348	SPEC_349	SPEC_350	SPEC_351	SPEC_352	SPEC_353	SPEC_354	SPEC_355	SPEC_356	SPEC_357	SPEC_358	SPEC_359	SPEC_360	SPEC_361	SPEC_362	SPEC_363	SPEC_364	SPEC_365	SPEC_366	SPEC_367	SPEC_368	SPEC_369	SPEC_370	SPEC_371	SPEC_372	SPEC_373	SPEC_374	SPEC_375	SPEC_376	SPEC_377	SPEC_378	SPEC_379	SPEC_380	SPEC_381	SPEC_382	SPEC_383	SPEC_384	SPEC_385	SPEC_386	SPEC_387	SPEC_388	SPEC_389	SPEC_390	SPEC_391	SPEC_392	SPEC_393	SPEC_394	SPEC_395	SPEC_396	SPEC_397	SPEC_398	SPEC_399	SPEC_400	SPEC_401	SPEC_402	SPEC_403	SPEC_404	SPEC_405	SPEC_406	SPEC_407	SPEC_408	SPEC_409	SPEC_410	SPEC_411	SPEC_412	SPEC_413	SPEC_414	SPEC_415	SPEC_416	SPEC_417	SPEC_418	SPEC_419	SPEC_420	SPEC_421	SPEC_422	SPEC_423	SPEC_424	SPEC_425	SPEC_426	SPEC_427	SPEC_428	SPEC_429	SPEC_430	SPEC_431	SPEC_432	SPEC_433	SPEC_434	SPEC_435	SPEC_436	SPEC_437	SPEC_438	SPEC_439	SPEC_440	SPEC_441	SPEC_442	SPEC_443	SPEC_444	SPEC_445	SPEC_446	SPEC_447	SPEC_448	SPEC_449	SPEC_450	SPEC_451	SPEC_452	SPEC_453	SPEC_454	SPEC_455	SPEC_456	SPEC_457	SPEC_458	SPEC_459	SPEC_460	SPEC_461	SPEC_462	SPEC_463	SPEC_464	SPEC_465	SPEC_466	SPEC_467	SPEC_468	SPEC_469	SPEC_470	SPEC_471	SPEC_472	SPEC_473	SPEC_474	SPEC_475	SPEC_476	SPEC_477	SPEC_478	SPEC_479	SPEC_480	SPEC_481	SPEC_482	SPEC_483	SPEC_484	SPEC_485	SPEC_486	SPEC_487	SPEC_488	SPEC_489	SPEC_490	SPEC_491	SPEC_492	SPEC_493	SPEC_494	SPEC_495	SPEC_496	SPEC_497	SPEC_498	SPEC_499	SPEC_500	SPEC_501	SPEC_502	SPEC_503	SPEC_504	SPEC_505	SPEC_506	SPEC_507	SPEC_508	SPEC_509	SPEC_510	SPEC_511	SPEC_512	SPEC_513	SPEC_514	SPEC_515	SPEC_516	SPEC_517	SPEC_518	SPEC_519	SPEC_520	SPEC_521	SPEC_522	SPEC_523	SPEC_524	SPEC_525	SPEC_526	SPEC_527	SPEC_528	SPEC_529	SPEC_530	SPEC_531	SPEC_532	SPEC_533	SPEC_534	SPEC_535	SPEC_536	SPEC_537	SPEC_538	SPEC_539	SPEC_540	SPEC_541	SPEC_542	SPEC_543	SPEC_544	SPEC_545	SPEC_546	SPEC_547	SPEC_548	SPEC_549	SPEC_550	SPEC_551	SPEC_552	SPEC_553	SPEC_554	SPEC_555	SPEC_556	SPEC_557	SPEC_558	SPEC_559	SPEC_560	SPEC_561	SPEC_562	SPEC_563	SPEC_564	SPEC_565	SPEC_566	SPEC_567	SPEC_568	SPEC_569	SPEC_570	SPEC_571	SPEC_572	SPEC_573	SPEC_574	SPEC_575	SPEC_576	SPEC_577	SPEC_578	SPEC_579	SPEC_580	SPEC_581	SPEC_582	SPEC_583	SPEC_584	SPEC_585	SPEC_586	SPEC_587	SPEC_588	SPEC_589	SPEC_590	SPEC_591	SPEC_592	SPEC_593	SPEC_594	SPEC_595	SPEC_596	SPEC_597	SPEC_598	SPEC_599	SPEC_600	SPEC_601	SPEC_602	SPEC_603	SPEC_604	SPEC_605	SPEC_606	SPEC_607	SPEC_608	SPEC_609	SPEC_610	SPEC_611	SPEC_612	SPEC_613	SPEC_614	SPEC_615	SPEC_616	SPEC_617	SPEC_618	SPEC_619	SPEC_620	SPEC_621	SPEC_622	SPEC_623	SPEC_624	SPEC_625	SPEC_626	SPEC_627	SPEC_628	SPEC_629	SPEC_630	SPEC_631	SPEC_632	SPEC_633	SPEC_634	SPEC_635	SPEC_636	SPEC_637	SPEC_638	SPEC_639	SPEC_640	SPEC_641	SPEC_642	SPEC_643	SPEC_644	SPEC_645	SPEC_646	SPEC_647	SPEC_648	SPEC_649	SPEC_650	SPEC_651	SPEC_652	SPEC_653	SPEC_654	SPEC_655	SPEC_656	SPEC_657	SPEC_658	SPEC_659	SPEC_660	SPEC_661	SPEC_662	SPEC_663	SPEC_664	SPEC_665	SPEC_666	SPEC_667	SPEC_668	SPEC_669	SPEC_670	SPEC_671	SPEC_672	SPEC_673	SPEC_674	SPEC_675	SPEC_676	SPEC_677	SPEC_678	SPEC_679	SPEC_680	SPEC_681	SPEC_682	SPEC_683	SPEC_684	SPEC_685	SPEC_686	SPEC_687	SPEC_688	SPEC_689	SPEC_690	SPEC_691	SPEC_692	SPEC_693	SPEC_694	SPEC_695	SPEC_696	SPEC_697	SPEC_698	SPEC_699	SPEC_700	SPEC_701	SPEC_702	SPEC_703	SPEC_704	SPEC_705	SPEC_706	SPEC_707	SPEC_708	SPEC_709	SPEC_710	SPEC_711	SPEC_712	SPEC_713	SPEC_714	SPEC_715	SPEC_716	SPEC_717	SPEC_718	SPEC_719	SPEC_720	SPEC_721	SPEC_722	SPEC_723	SPEC_724	SPEC_725	SPEC_726	SPEC_727	SPEC_728	SPEC_729	SPEC_730	SPEC_731	SPEC_732	SPEC_733	SPEC_734	SPEC_735	SPEC_736	SPEC_737	SPEC_738	SPEC_739	SPEC_740	SPEC_741	SPEC_742	SPEC_743	SPEC_744	SPEC_745	SPEC_746	SPEC_747	SPEC_748	SPEC_749	SPEC_750	SPEC_751	SPEC_752	SPEC_753	SPEC_754	SPEC_755	SPEC_756	SPEC_757	SPEC_758	SPEC_759	SPEC_760	SPEC_761	SPEC_762	SPEC_763	SPEC_764	SPEC_765	SPEC_766	SPEC_767	SPEC_768	SPEC_769	SPEC_770	SPEC_771	SPEC_772	SPEC_773	SPEC_774	SPEC_775	SPEC_776	SPEC_777	SPEC_778	SPEC_779	SPEC_780	SPEC_781	SPEC_782	SPEC_783	SPEC_784	SPEC_785	SPEC_786	SPEC_787	SPEC_788	SPEC_789	SPEC_790	SPEC_791	SPEC_792	SPEC_793	SPEC_794	SPEC_795	SPEC_796	SPEC_797	SPEC_798	SPEC_799	SPEC_800	SPEC_801	SPEC_802	SPEC_803	SPEC_804	SPEC_805	SPEC_806	SPEC_807	SPEC_808	SPEC_809	SPEC_810	SPEC_811	SPEC_812	SPEC_813	SPEC_814	SPEC_815	SPEC_816	SPEC_817	SPEC_818	SPEC_819	SPEC_820	SPEC_821	SPEC_822	SPEC_823	SPEC_824	SPEC_825	SPEC_826	SPEC_827	SPEC_828	SPEC_829	SPEC_830
END_DATA_FORMAT
BEGIN_DATA
 0.00930483	0.00967643	0.0100597	0.0104549	0.0108623	0.0112821	0.0117147	0.0121602	0.0126188	0.013091	0.0135769	0.0140768	0.014591	0.0151198	0.0156633	0.0162219	0.0167959	0.0173855	0.017991	0.0186127	0.0192508	0.0199057	0.0205776	0.0212667	0.0219734	0.022698	0.0234406	0.0242017	0.0249814	0.0257801	0.0265981	0.0274355	0.0282928	0.0291701	0.0300678	0.0309861	0.0319253	0.0328857	0.0338676	0.0348712	0.0358968	0.0369447	0.0380152	0.0391085	0.040225	0.0413648	0.0425282	0.0437156	0.0449272	0.0461631	0.0474238	0.0487095	0.0500204	0.0513568	0.0527189	0.054107	0.0555213	0.0569622	0.0584298	0.0599244	0.0614462	0.0629955	0.0645724	0.0661774	0.0678105	0.069472	0.0711621	0.0728811	0.0746292	0.0764066	0.0782135	0.0800501	0.0819167	0.0838134	0.0857404	0.087698	0.0896864	0.0917056	0.0937561	0.0958378	0.097951	0.100096	0.102273	0.104481	0.106722	0.108996	0.111302	0.11364	0.116012	0.118416	0.120853	0.123324	0.125828	0.128366	0.130938	0.133543	0.136182	0.138855	0.141563	0.144304	0.14708	0.149891	0.152736	0.155616	0.15853	0.16148	0.164464	0.167484	0.170538	0.173628	0.176753	0.179913	0.183108	0.186339	0.189605	0.192907	0.196244	0.199617	0.203026	0.20647	0.20995	0.213465	0.217016	0.220603	0.224225	0.227883	0.231577	0.235307	0.239072	0.242873	0.246709	0.250581	0.254489	0.258432	0.262411	0.266425	0.270475	0.27456	0.278681	0.282836	0.287027	0.291253	0.295515	0.299811	0.304142	0.308508	0.312909	0.317345	0.321815	0.32632	0.330859	0.335432	0.34004	0.344682	0.349358	0.354068	0.358811	0.363588	0.368399	0.373243	0.378121	0.383031	0.387975	0.392951	0.39796	0.403002	0.408076	0.413182	0.41832	0.423491	0.428693	0.433926	0.439192	0.444488	0.449816	0.455174	0.460563	0.465983	0.471433	0.476913	0.482423	0.487963	0.493533	0.499132	0.50476	0.510418	0.516104	0.521818	0.527561	0.533332	0.539132	0.544958	0.550813	0.556694	0.562603	0.568539	0.574501	0.580489	0.586504	0.592545	0.598611	0.604703	0.61082	0.616962	0.623128	0.62932	0.635535	0.641775	0.648038	0.654325	0.660635	0.666968	0.673324	0.679702	0.686102	0.692525	0.698969	0.705435	0.711922	0.71843	0.724959	0.731508	0.738077	0.744666	0.751275	0.757903	0.764551	0.771217	0.777902	0.784605	0.791326	0.798065	0.804821	0.811595	0.818386	0.825193	0.832017	0.838856	0.845712	0.852584	0.85947	0.866372	0.873288	0.880219	0.887165	0.894124	0.901097	0.908083	0.915082	0.922095	0.92912	0.936157	0.943206	0.950267	0.957339	0.964423	0.971518	0.978623	0.985739	0.992864	1.0	1.00715	1.0143	1.02146	1.02864	1.03582	1.04301	1.0502	1.05741	1.06462	1.07184	1.07906	1.0863	1.09354	1.10078	1.10803	1.11529	1.12255	1.12982	1.13709	1.14436	1.15164	1.15893	1.16622	1.17351	1.1808	1.1881	1.1954	1.2027	1.21001	1.21731	1.22462	1.23193	1.23924	1.24655	1.25386	1.26118	1.26849	1.2758	1.28312	1.29043	1.29774	1.30505	1.31236	1.31966	1.32697	1.33427	1.34157	1.34887	1.35617	1.36346	1.37075	1.37804	1.38532	1.3926	1.39988	1.40715	1.41441	1.42167	1.42893	1.43618	1.44343	1.45067	1.4579	1.46513	1.47235	1.47957	1.48678	1.49398	1.50117	1.50836	1.51554	1.52271	1.52988	1.53704	1.54418	1.55132	1.55845	1.56558	1.57269	1.57979	1.58689	1.59397	1.60104	1.60811	1.61516	1.62221	1.62924	1.63626	1.64327	1.65028	1.65726	1.66424	1.67121	1.67816	1.6851	1.69203	1.69895	1.70586	1.71275	1.71963	1.7265	1.73335	1.74019	1.74702	1.75383	1.76063	1.76741	1.77419	1.78094	1.78769	1.79441	1.80113	1.80783	1.81451	1.82118	1.82783	1.83447	1.84109	1.8477	1.85429	1.86087	1.86743	1.87397	1.8805	1.88701	1.8935	1.89998	1.90644	1.91288	1.91931	1.92572	1.93211	1.93849	1.94484	1.95118	1.9575	1.96381	1.97009	1.97636	1.98261	1.98884	1.99506	2.00125	2.00743	2.01359	2.01972	2.02584	2.03195	2.03803	2.04409	2.05013	2.05616	2.06216	2.06815	2.07411	2.08006	2.08599	2.09189	2.09778	2.10365	2.10949	2.11532	2.12112	2.12691	2.13268	2.13842	2.14415	2.14985	2.15553	2.1612	2.16684	2.17246	2.17806	2.18364	2.1892	2.19473	2.20025	2.20574	2.21122	2.21667	2.2221	2.22751	2.2329	2.23826	2.24361	2.24893	2.25423	2.25951	2.26477	2.27	2.27522	2.28041	2.28558	2.29073	2.29585	2.30096	2.30604	2.3111	2.31614	2.32115	2.32615	2.33112	2.33606	2.34099	2.34589	2.35078	2.35564	2.36047	2.36529	2.37008	2.37485	2.37959	2.38432	2.38902	2.3937	2.39836	2.40299	2.4076	2.41219	2.41675	2.4213	2.42582	2.43031	2.43479	2.43924	2.44367	2.44808	2.45246	2.45682	2.46116	2.46548	2.46977	2.47404	2.47829	2.48251	2.48671	2.49089	2.49505	2.49918	2.50329	2.50738	2.51144	2.51548	2.5195	2.5235	2.52747	2.53142	2.53535	2.53925	2.54314	2.547	2.55083	2.55465	2.55844	2.56221	2.56595	2.56968	2.57338	2.57706	2.58071	2.58434	2.58795	2.59154	2.59511	2.59865	2.60217	2.60567	2.60914	2.61259	2.61602
END_DATA
